azure-patterns/svg-devops-open-source.svg

<svg xmlns="http://www.w3.org/2000/svg" viewBox="0 0 80 80">
                                
                            
    <rect width="80" height="80" fill="black" fill-opacity="0"></rect>
    <circle cx="40" cy="40" r="40" fill="#2560E0" fill-opacity="0.05"></circle>
    <rect width="38" height="38" fill="black" fill-opacity="0" transform="translate(21 21)"></rect>
    <rect width="38" height="38" fill="black" fill-opacity="0" transform="translate(21 21)"></rect>
    <path fill-rule="evenodd" clip-rule="evenodd" d="M40.0157 21C29.5004 21 21 29.7087 21 40.4817C21 49.0936 26.4465 56.3831 34.0025 58.9634C34.9469 59.1569 35.2933 58.5441 35.2933 58.028C35.2933 57.5765 35.2618 56.0283 35.2618 54.4156C29.9726 55.5767 28.8707 52.0932 28.8707 52.0932C28.0207 49.8354 26.7614 49.2548 26.7614 49.2548C25.0298 48.0614 26.8873 48.0614 26.8873 48.0614C28.8078 48.1905 29.8152 50.0612 29.8152 50.0612C31.5153 53.0286 34.2543 52.19 35.3562 51.6739C35.5136 50.416 36.0174 49.5451 36.5526 49.0613C32.3339 48.6098 27.8948 46.9325 27.8948 39.4495C27.8948 37.3207 28.6504 35.579 29.8467 34.2243C29.6578 33.7405 28.9967 31.7407 30.0356 29.0636C30.0356 29.0636 31.6412 28.5475 35.2618 31.0634C36.773 30.6441 38.4101 30.4183 40.0157 30.4183C41.6213 30.4183 43.2584 30.6441 44.7696 31.0634C48.3902 28.5475 49.9958 29.0636 49.9958 29.0636C51.0347 31.7407 50.3736 33.7405 50.1847 34.2243C51.4125 35.579 52.1366 37.3207 52.1366 39.4495C52.1366 46.9325 47.6975 48.5775 43.4473 49.0613C44.14 49.6742 44.7381 50.8353 44.7381 52.6738C44.7381 55.2864 44.7067 57.383 44.7067 58.028C44.7067 58.5441 45.053 59.1569 45.9975 58.9634C53.5534 56.3831 58.9999 49.0936 58.9999 40.4817C59.0314 29.7087 50.4995 21 40.0157 21Z" fill="#2560E0"></path>
    <path d="M28.2091 48.9647C28.1776 49.0615 28.0202 49.0937 27.8943 49.0292C27.7683 48.9647 27.6739 48.8357 27.7368 48.7389C27.7683 48.6422 27.9257 48.6099 28.0517 48.6744C28.1776 48.7389 28.2406 48.868 28.2091 48.9647Z" fill="#0078D7"></path>
    <path d="M28.9654 49.8356C28.871 49.9324 28.6821 49.8679 28.5876 49.7388C28.4617 49.6098 28.4302 49.4163 28.5246 49.3195C28.6191 49.2228 28.7765 49.2873 28.9024 49.4163C29.0284 49.5776 29.0599 49.7711 28.9654 49.8356Z" fill="#0078D7"></path>
    <path d="M29.72 50.9639C29.5941 51.0607 29.4052 50.9639 29.3108 50.8027C29.1848 50.6414 29.1848 50.4156 29.3108 50.3511C29.4367 50.2543 29.6256 50.3511 29.72 50.5124C29.846 50.6737 29.846 50.8672 29.72 50.9639Z" fill="#0078D7"></path>
    <path d="M30.7599 52.061C30.6654 52.1901 30.4451 52.1578 30.2562 51.9965C30.0988 51.8353 30.0358 51.6095 30.1617 51.5127C30.2562 51.3837 30.4765 51.416 30.6654 51.5772C30.8229 51.7062 30.8543 51.932 30.7599 52.061Z" fill="#0078D7"></path>
    <path d="M32.1766 52.6737C32.1451 52.835 31.9248 52.8995 31.7044 52.835C31.484 52.7705 31.3581 52.577 31.3896 52.448C31.421 52.2867 31.6414 52.2222 31.8618 52.2867C32.0822 52.3512 32.2081 52.5125 32.1766 52.6737Z" fill="#0078D7"></path>
    <path d="M33.7185 52.8027C33.7185 52.964 33.5296 53.093 33.3092 53.093C33.0888 53.093 32.8999 52.964 32.8999 52.8027C32.8999 52.6415 33.0888 52.5125 33.3092 52.5125C33.5296 52.5125 33.7185 52.6415 33.7185 52.8027Z" fill="#0078D7"></path>
    <path d="M35.1671 52.5457C35.1985 52.707 35.0411 52.8682 34.8207 52.9005C34.6004 52.9327 34.4115 52.836 34.38 52.6747C34.3485 52.5134 34.5059 52.3522 34.7263 52.3199C34.9467 52.2876 35.1356 52.3844 35.1671 52.5457Z" fill="#0078D7"></path>
</svg>

<svg xmlns="http://www.w3.org/2000/svg" viewBox="0 0 80 80"><path fill="none" d="M0 0h80v80H0z"/><circle cx="40" cy="40" r="40" fill="#2560E0" fill-opacity=".05"/><path fill="none" d="M21 21h38v38H21z"/><path fill="none" d="M21 21h38v38H21z"/><path fill-rule="evenodd" clip-rule="evenodd" d="M40.016 21C29.5 21 21 29.709 21 40.482c0 8.612 5.447 15.901 13.002 18.481.945.194 1.291-.419 1.291-.935 0-.451-.031-2-.031-3.612-5.29 1.16-6.391-2.323-6.391-2.323-.85-2.258-2.11-2.838-2.11-2.838-1.731-1.194.126-1.194.126-1.194 1.92.13 2.928 2 2.928 2 1.7 2.968 4.44 2.129 5.541 1.613.158-1.258.661-2.129 1.197-2.613-4.22-.451-8.658-2.129-8.658-9.611 0-2.13.755-3.871 1.952-5.226-.19-.483-.85-2.483.189-5.16 0 0 1.605-.517 5.226 2a17.997 17.997 0 0 1 4.754-.646c1.605 0 3.242.226 4.754.645 3.62-2.515 5.226-2 5.226-2 1.039 2.678.378 4.677.189 5.161 1.227 1.355 1.952 3.097 1.952 5.226 0 7.482-4.44 9.127-8.69 9.611.693.613 1.291 1.774 1.291 3.613 0 2.612-.031 4.709-.031 5.354 0 .516.346 1.129 1.29.935C53.553 56.383 59 49.093 59 40.482 59.03 29.709 50.5 21 40.016 21z" fill="#2560E0"/><path d="M28.21 48.965c-.032.096-.19.129-.316.064-.126-.064-.22-.193-.157-.29.031-.097.189-.13.315-.065s.189.194.157.29zM28.965 49.836c-.094.096-.283.032-.377-.097-.126-.13-.158-.323-.063-.42.094-.096.252-.032.377.097.126.162.158.355.063.42zM29.72 50.964c-.126.097-.315 0-.41-.161-.125-.162-.125-.387 0-.452.127-.097.316 0 .41.161.126.162.126.355 0 .452zM30.76 52.061c-.095.13-.315.097-.504-.065-.157-.16-.22-.387-.094-.483.094-.13.315-.097.503.064.158.13.19.355.095.484zM32.177 52.674c-.032.161-.252.226-.473.161-.22-.065-.346-.258-.314-.387.031-.161.251-.226.472-.161.22.064.346.226.315.387zM33.718 52.803c0 .161-.188.29-.409.29-.22 0-.41-.129-.41-.29 0-.161.19-.29.41-.29.22 0 .41.129.41.29zM35.167 52.546c.032.161-.126.322-.346.355-.22.032-.41-.065-.441-.226-.032-.162.126-.323.346-.355.22-.032.41.064.441.226z" fill="#0078D7"/></svg>
